X:1
T:Andreas sequitur
T:Daniel Friderici
T:Source : Bicinia sacra---Rostock---J.Richelius---1642. Editor : André Vierendeels (14/07/17).
T:Notes : Original clefs : C1, C1 Editorial accidentals above the staff
T:Andreas sequitur
T:©
T:©
T:©
C:Daniel Friderici
Z:©
%%score [ 1 2 ]
L:1/8
Q:1/4=120
M:2/2
K:C
V:1 treble nm="Soprano 1" snm="S 1"
V:2 treble nm="Soprano 2" snm="S 2"
V:1
 A8 | A4 A4 | G4 F4 | E8 | D2 E2 F2 G2 | A2 B2 c2 A2 | B2 c2 d4- | d2 ^cB c4 | d4 A4 | A8 | G4 F4 | %11
w: An-|dre- as|se- qui|tur|Chri- * * *||||stum, et|re-|ti- a|
 E8 | D4 F4 | F8 | E4 D4- | D4 ^C4 | D4 A4 | A8 | G4 F4 | E8 | D8 :: E2 E2 E2 E2 | F4 E4 | %23
w: lin-|quit, et|re-|ti- a|_ lin-|quit, et|re-|ti- a|lin-|quit:|Ad su a vo-|cat, ad|
 ^G2 G2 G2 G2 | A4 ^G2 A2 | A3 G ABcA | B2 c2 B3 B | A4 A2 B2 | c2 B2 A2 G2 | F2 E2 D2 E2 | %30
w: su- a vo- cat,|vo- cat is|mu- * * * * *|* * * ni-|a, lin- *|||
 F2 E2 D4 | C4 c2 B2 | A2 B2 c2 d2 | c2 B2 A2 B2 | c2 d2 e2 d2 | c2 B2 A2 G2 | F2 E2 D2 E2 | %37
w: |que, lin- *||||||
 F2 G2 A4- | A4 G4 | F6 ED | E8 | D8 :| %42
w: * * que|_ tu-|||a.|
V:2
 z8 | z8 | z8 | z8 | A8 | A4 A4 | G4 F4 | E8 | D2 E2 F2 G2 | A2 B2 c2 A2 | B2 c2 d4- | d2 ^cB c4 | %12
w: ||||An-|dre- as|se- qui-|tur|Chri- * * *||||
 d4 A2 AA | A8 | c4 B4 | E8 | D4 D2 DD | F8 | E4 D4- | D4 ^C4 | D8 :: ^C2 C2 C2 C2 | D4 ^C2 E2 | %23
w: stum et su- a|re-|ti- a|lin-|quit, et su- a|re-|ti- a|_ lin-|quit:|Ad su- a vo-|cat, ad su-|
 E4 E2 E2 | F4 E2 D2 | DCDE FGAF | ^G2 A4 G2 | A8 | A2 B2 c2 B2 | A2 G2 F2 E2 | D2 E2 F4 | E8 | %32
w: a vo- cat|is mu- *||* * ni-|a,|lin- * * *|||que,|
 c2 B2 A2 B2 | c2 d2 c2 B2 | A2 B2 c2 d2 | e2 d2 c2 B2 | A2 G2 F2 E2 | D6 D2 | F2 ED E4- | %39
w: lin- * * *||||||tu- * * *|
 E2 D2 D4- | D2 ^CB, C4 | D8 :| %42
w: ||a.|

